svg/black/xuc.svg

<svg xmlns="http://www.w3.org/2000/svg" width="32" height="32" viewBox="0 0 32 32">
  <path d="M16,32 C7.163444,32 0,24.836556 0,16 C0,7.163444 7.163444,0 16,0 C24.836556,0 32,7.163444 32,16 C32,24.836556 24.836556,32 16,32 Z M27,15.9995187 L27,16.0004813 C27,9.92496007 22.075417,5 16.000361,5 C9.92530489,5 5,9.92375681 5,15.9995187 C5,22.0752806 9.92530489,27 16.000361,27 C22.075417,27 27,22.0750399 27,15.9995187 Z M23.2304621,16.3460588 L10.9116653,16.3633858 C11.1029696,19.0038286 13.2999617,21.0888446 15.9890511,21.0888446 C17.9302488,21.0888446 19.6098769,20.0015752 20.4689418,18.4033998 L22.7913043,18.4033998 C21.9454744,20.7906758 19.8842002,22.5984598 17.3508012,23.0840972 L17.3508012,24.5304207 L15.1102543,25.2283139 L15.1102543,23.1603842 C11.5368335,22.7250432 8.76592836,19.6858387 8.76592836,15.9949463 C8.76592836,12.3897263 11.4129068,9.4075565 14.8686574,8.87017874 L14.8686574,7.46741342 L17.1080011,6.76952023 L17.1080011,8.86921613 C20.5649549,9.4075565 23.2304621,12.6116082 23.2304621,16.2194754 C23.2304621,16.3460588 23.2369593,16.2206786 23.2304621,16.3460588 Z M11.2507192,14.1303682 L20.7273831,14.1303682 C19.9818977,12.2407622 18.1436916,10.9012886 15.9890511,10.9012886 C13.8344107,10.9012886 11.9950014,12.2407622 11.2507192,14.1303682 Z"/>
</svg>

<svg xmlns="http://www.w3.org/2000/svg" width="32" height="32"><path d="M16 32C7.163 32 0 24.837 0 16S7.163 0 16 0s16 7.163 16 16-7.163 16-16 16zm11-16c0-6.075-4.925-11-11-11S5 9.924 5 16c0 6.075 4.925 11 11 11s11-4.925 11-11zm-3.77.346l-12.318.017a5.094 5.094 0 0 0 5.077 4.726 5.08 5.08 0 0 0 4.48-2.686h2.322a7.23 7.23 0 0 1-5.44 4.681v1.446l-2.24.698V23.16c-3.574-.435-6.345-3.474-6.345-7.165 0-3.605 2.647-6.587 6.103-7.125V7.467l2.239-.697v2.1c3.457.538 6.122 3.742 6.122 7.35 0 .126.007 0 0 .126zM11.25 14.13h9.477a5.095 5.095 0 0 0-4.738-3.229 5.093 5.093 0 0 0-4.738 3.23z"/></svg>
